X:1147
T:Clee Hill
O:england
C:J BAINBRIDGE
Q:1/4=140
M:4/4
L:1/8
K:D
F6G2|A6FG|A2d2c2B2|A4F4|
E6F2|G6A2|B2cB A2G2|F2D2F2G2|
F6G2|A6FG|A2d2c2B2|A4F4|
E6F2|G6A2|B2A2B2c2|d6e2||
f2AA f2A2|f6AA|A2B2c2d2|c4B4|
g2BB g2B2|g6B2|A2BB c2d2|e2c2B2A2|
f2AA f2A2|f6AA|A2B2c2d2|c4B4|
B2c2d2BB|A2d2f3g|f2e2B2c2|d8


